src/pos-icons/weather-night-partly-cloudy.svg

<svg height="24" viewBox="0 0 24 24" width="24" xmlns="http://www.w3.org/2000/svg"><path d="m22 10.28c-.26.02-.5.03-.74.03-1.94 0-3.87-.74-5.35-2.22-1.66-1.65-2.41-3.9-2.19-6.09.05-.47-.5-1-1.01-1-.14 0-.27.04-.39.12-.32.24-.66.52-.96.82-2.31 2.3-2.81 5.72-1.52 8.52-1.53.65-2.71 1.97-3.15 3.6l-.69-.06a4 4 0 0 0 -4 4 4 4 0 0 0 4 4h13a3 3 0 0 0 3-3 3 3 0 0 0 -3-3c-.58 0-1.12.16-1.58.45l.08-.95c0-.22 0-.45-.04-.67 1.68-.16 3.31-.89 4.6-2.19.32-.3.58-.64.82-.96.39-.55-.23-1.4-.84-1.4m-3.04 7.72a1 1 0 0 1 1 1 1 1 0 0 1 -1 1h-13a2 2 0 0 1 -2-2 2 2 0 0 1 2-2h2.5v-.5c0-1.56 1.03-2.86 2.44-3.32.16-.05.32-.09.49-.12.18-.03.37-.06.57-.06.23 0 .45.03.66.07.07.01.14.03.21.06.13.03.28.07.41.12.08.03.16.07.22.11.13.05.24.11.34.18.08.05.16.1.23.16.1.07.18.14.27.22.07.08.16.13.21.2.08.08.14.17.21.25.06.08.13.16.18.25.06.09.1.18.15.28s.11.18.15.28c.17.41.26.85.26 1.32v2.5m1.33-5.14c-.93-1.7-2.75-2.86-4.83-2.86h-.13c-.46-.81-.73-1.74-.73-2.71 0-.98.25-1.92.72-2.74.35 1.86 1.26 3.59 2.64 4.95 1.36 1.38 3.08 2.29 4.95 2.64-.79.46-1.69.7-2.62.72z"/></svg>

<?xml version="1.0" encoding="UTF-8"?><!DOCTYPE svg PUBLIC "-//W3C//DTD SVG 1.1//EN" "http://www.w3.org/Graphics/SVG/1.1/DTD/svg11.dtd"><svg xmlns="http://www.w3.org/2000/svg" xmlns:xlink="http://www.w3.org/1999/xlink" version="1.1" id="mdi-weather-night-partly-cloudy" width="24" height="24" viewBox="0 0 24 24"><path d="M22,10.28C21.74,10.3 21.5,10.31 21.26,10.31C19.32,10.31 17.39,9.57 15.91,8.09C14.25,6.44 13.5,4.19 13.72,2C13.77,1.53 13.22,1 12.71,1C12.57,1 12.44,1.04 12.32,1.12C12,1.36 11.66,1.64 11.36,1.94C9.05,4.24 8.55,7.66 9.84,10.46C8.31,11.11 7.13,12.43 6.69,14.06L6,14A4,4 0 0,0 2,18A4,4 0 0,0 6,22H19A3,3 0 0,0 22,19A3,3 0 0,0 19,16C18.42,16 17.88,16.16 17.42,16.45L17.5,15.5C17.5,15.28 17.5,15.05 17.46,14.83C19.14,14.67 20.77,13.94 22.06,12.64C22.38,12.34 22.64,12 22.88,11.68C23.27,11.13 22.65,10.28 22.04,10.28M19,18A1,1 0 0,1 20,19A1,1 0 0,1 19,20H6A2,2 0 0,1 4,18A2,2 0 0,1 6,16H8.5V15.5C8.5,13.94 9.53,12.64 10.94,12.18C11.1,12.13 11.26,12.09 11.43,12.06C11.61,12.03 11.8,12 12,12C12.23,12 12.45,12.03 12.66,12.07C12.73,12.08 12.8,12.1 12.87,12.13C13,12.16 13.15,12.2 13.28,12.25C13.36,12.28 13.44,12.32 13.5,12.36C13.63,12.41 13.74,12.47 13.84,12.54C13.92,12.59 14,12.64 14.07,12.7C14.17,12.77 14.25,12.84 14.34,12.92C14.41,13 14.5,13.05 14.55,13.12C14.63,13.2 14.69,13.29 14.76,13.37C14.82,13.45 14.89,13.53 14.94,13.62C15,13.71 15.04,13.8 15.09,13.9C15.14,14 15.2,14.08 15.24,14.18C15.41,14.59 15.5,15.03 15.5,15.5V18M16.83,12.86C15.9,11.16 14.08,10 12,10H11.87C11.41,9.19 11.14,8.26 11.14,7.29C11.14,6.31 11.39,5.37 11.86,4.55C12.21,6.41 13.12,8.14 14.5,9.5C15.86,10.88 17.58,11.79 19.45,12.14C18.66,12.6 17.76,12.84 16.83,12.86Z" /></svg>
